images/htmlacademy-logo.svg

<svg width="115" height="34" viewBox="0 0 115 34" fill="currentColor" xmlns="http://www.w3.org/2000/svg">
<path d="M0 13.3282V15.9282H2.5V13.3282H0Z"/>
<path d="M11.6 4.92822C10 4.92822 8.8 5.62822 8 6.62822H7.9V0.428223H5.9V15.9282H7.9V10.6282C7.9 8.52822 9.2 7.02822 11.2 7.02822C13 7.02822 14.1 8.42822 14.1 10.2282V15.9282H16.1V9.82822C16.2 6.82822 14.3 4.92822 11.6 4.92822Z"/>
<path d="M26.6 5.22822H21.8V1.52822H19.8V5.32822H17.9V7.32822H19.8V13.3282C19.8 15.0282 20.8 16.0282 22.5 16.0282H26.6V14.0282H22.9C22.2 14.0282 21.8 13.6282 21.8 12.9282V7.22822H26.6V5.22822Z"/>
<path d="M41.1 5.02822C39.5 5.02822 38.2 5.82822 37.6 7.12822H37.5C36.9 5.92822 35.7 5.02822 34.1 5.02822C32.7 5.02822 31.6 5.82822 31 6.82822H30.9V5.22822H29V15.8282H31V10.4282C31 8.42822 32 6.92822 33.6 6.92822C35.1 6.92822 36 7.92822 36 9.52822V15.8282H38V10.2282C38 7.82822 39.4 6.92822 40.6 6.92822C42.1 6.92822 43 7.92822 43 9.52822V15.8282H45V9.32822C45.1 6.82822 43.6 5.02822 41.1 5.02822Z"/>
<path d="M47.8 13.1282C47.8 14.8282 48.8 15.8282 50.6 15.8282H52.6V13.8282H50.9C50.2 13.8282 49.8 13.4282 49.8 12.7282V0.428223H47.8V13.1282Z"/>
<path d="M28.9 20.1282C28 19.0282 26.7 18.3282 25 18.3282C21.9 18.3282 19.6 20.6282 19.6 23.9282C19.6 27.2282 21.9 29.5282 25 29.5282C26.8 29.5282 28 28.7282 28.8 27.6282H28.9V29.2282H30.9V18.6282H28.9V20.1282ZM25.3 27.5282C23.1 27.5282 21.7 25.9282 21.7 23.9282C21.7 21.9282 23.1 20.3282 25.3 20.3282C27.5 20.3282 28.9 21.9282 28.9 23.9282C28.9 25.8282 27.5 27.5282 25.3 27.5282Z"/>
<path d="M44.2 22.4282C43.7 20.0282 41.6 18.3282 38.8 18.3282C35.4 18.3282 33.2 20.8282 33.2 23.9282C33.2 27.0282 35.4 29.5282 38.8 29.5282C41.6 29.5282 43.7 27.7282 44.2 25.3282H42.1C41.7 26.6282 40.4 27.6282 38.8 27.6282C36.6 27.6282 35.2 26.0282 35.2 24.0282C35.2 22.0282 36.6 20.4282 38.8 20.4282C40.4 20.4282 41.6 21.4282 42.1 22.6282H44.2V22.4282Z"/>
<path d="M55.1 20.1282C54.2 19.0282 52.9 18.3282 51.2 18.3282C48.1 18.3282 45.8 20.6282 45.8 23.9282C45.8 27.2282 48.1 29.5282 51.2 29.5282C53 29.5282 54.2 28.7282 55 27.6282H55.1V29.2282H57.1V18.6282H55.1V20.1282ZM51.5 27.5282C49.3 27.5282 47.9 25.9282 47.9 23.9282C47.9 21.9282 49.3 20.3282 51.5 20.3282C53.7 20.3282 55.1 21.9282 55.1 23.9282C55.1 25.8282 53.6 27.5282 51.5 27.5282Z"/>
<path d="M68.7 20.2282C67.8 19.1282 66.5 18.3282 64.8 18.3282C61.7 18.3282 59.4 20.6282 59.4 23.9282C59.4 27.2282 61.6 29.5282 64.8 29.5282C66.5 29.5282 67.8 28.7282 68.6 27.7282H68.7V29.2282H70.7V13.8282H68.7V20.2282ZM65.1 27.5282C62.9 27.5282 61.5 25.9282 61.5 23.9282C61.5 21.9282 62.9 20.3282 65.1 20.3282C67.3 20.3282 68.7 21.9282 68.7 23.9282C68.6 25.9282 67.2 27.5282 65.1 27.5282Z"/>
<path d="M78.3 18.3282C75 18.3282 72.8 20.8282 72.8 23.9282C72.8 26.9282 74.9 29.5282 78.3 29.5282C80.8 29.5282 82.8 28.2282 83.5 25.9282H81.4C80.9 26.9282 79.8 27.5282 78.4 27.5282C76.5 27.5282 75.1 26.2282 75 24.6282H83.8C84 21.0282 81.8 18.3282 78.3 18.3282ZM78.3 20.2282C80 20.2282 81.3 21.2282 81.6 22.8282H75.1C75.4 21.3282 76.6 20.2282 78.3 20.2282Z"/>
<path d="M98.2 18.3282C96.6 18.3282 95.3 19.1282 94.6 20.3282H94.5C93.9 19.1282 92.7 18.3282 91.1 18.3282C89.7 18.3282 88.6 19.0282 88 20.1282V18.6282H86.1V29.2282H88.1V23.8282C88.1 21.8282 89.1 20.4282 90.7 20.3282C92.2 20.3282 93.1 21.3282 93.1 22.9282V29.2282H95.1V23.6282C95.1 21.2282 96.5 20.3282 97.7 20.3282C99.2 20.3282 100.1 21.3282 100.1 22.9282V29.2282H102.1V22.7282C102.2 20.1282 100.7 18.3282 98.2 18.3282Z"/>
<path d="M109.4 27.4282L105.8 18.5282H103.6L108.4 30.1282C108.1 31.0282 107.7 31.3282 106.7 31.3282H104.2V33.3282H106.7C108.5 33.3282 109.5 32.5282 110.2 30.7282L114.9 18.5282H112.8L109.4 27.4282Z"/>
</svg>

<svg xmlns="http://www.w3.org/2000/svg" width="115" height="34" fill="currentColor">
<path d="M0 13.33v2.6h2.5v-2.6H0ZM11.6 4.93c-1.6 0-2.8.7-3.6 1.7h-.1V.43h-2v15.5h2v-5.3c0-2.1 1.3-3.6 3.3-3.6 1.8 0 2.9 1.4 2.9 3.2v5.7h2v-6.1c.1-3-1.8-4.9-4.5-4.9ZM26.6 5.23h-4.8v-3.7h-2v3.8h-1.9v2h1.9v6c0 1.7 1 2.7 2.7 2.7h4.1v-2h-3.7c-.7 0-1.1-.4-1.1-1.1v-5.7h4.8v-2ZM41.1 5.03c-1.6 0-2.9.8-3.5 2.1h-.1c-.6-1.2-1.8-2.1-3.4-2.1-1.4 0-2.5.8-3.1 1.8h-.1v-1.6H29v10.6h2v-5.4c0-2 1-3.5 2.6-3.5 1.5 0 2.4 1 2.4 2.6v6.3h2v-5.6c0-2.4 1.4-3.3 2.6-3.3 1.5 0 2.4 1 2.4 2.6v6.3h2v-6.5c.1-2.5-1.4-4.3-3.9-4.3ZM47.8 13.13c0 1.7 1 2.7 2.8 2.7h2v-2h-1.7c-.7 0-1.1-.4-1.1-1.1V.43h-2v12.7ZM28.9 20.13c-.9-1.1-2.2-1.8-3.9-1.8-3.1 0-5.4 2.3-5.4 5.6s2.3 5.6 5.4 5.6c1.8 0 3-.8 3.8-1.9h.1v1.6h2v-10.6h-2v1.5Zm-3.6 7.4c-2.2 0-3.6-1.6-3.6-3.6s1.4-3.6 3.6-3.6 3.6 1.6 3.6 3.6c0 1.9-1.4 3.6-3.6 3.6ZM44.2 22.43c-.5-2.4-2.6-4.1-5.4-4.1a5.4 5.4 0 0 0-5.6 5.6c0 3.1 2.2 5.6 5.6 5.6 2.8 0 4.9-1.8 5.4-4.2h-2.1a3.4 3.4 0 0 1-3.3 2.3c-2.2 0-3.6-1.6-3.6-3.6s1.4-3.6 3.6-3.6c1.6 0 2.8 1 3.3 2.2h2.1v-.2ZM55.1 20.13c-.9-1.1-2.2-1.8-3.9-1.8-3.1 0-5.4 2.3-5.4 5.6s2.3 5.6 5.4 5.6c1.8 0 3-.8 3.8-1.9h.1v1.6h2v-10.6h-2v1.5Zm-3.6 7.4c-2.2 0-3.6-1.6-3.6-3.6s1.4-3.6 3.6-3.6 3.6 1.6 3.6 3.6c0 1.9-1.5 3.6-3.6 3.6ZM68.7 20.23c-.9-1.1-2.2-1.9-3.9-1.9-3.1 0-5.4 2.3-5.4 5.6s2.2 5.6 5.4 5.6c1.7 0 3-.8 3.8-1.8h.1v1.5h2v-15.4h-2v6.4Zm-3.6 7.3c-2.2 0-3.6-1.6-3.6-3.6s1.4-3.6 3.6-3.6 3.6 1.6 3.6 3.6c-.1 2-1.5 3.6-3.6 3.6ZM78.3 18.33c-3.3 0-5.5 2.5-5.5 5.6 0 3 2.1 5.6 5.5 5.6 2.5 0 4.5-1.3 5.2-3.6h-2.1c-.5 1-1.6 1.6-3 1.6-1.9 0-3.3-1.3-3.4-2.9h8.8c.2-3.6-2-6.3-5.5-6.3Zm0 1.9c1.7 0 3 1 3.3 2.6h-6.5c.3-1.5 1.5-2.6 3.2-2.6ZM98.2 18.33c-1.6 0-2.9.8-3.6 2h-.1c-.6-1.2-1.8-2-3.4-2-1.4 0-2.5.7-3.1 1.8v-1.5h-1.9v10.6h2v-5.4c0-2 1-3.4 2.6-3.5 1.5 0 2.4 1 2.4 2.6v6.3h2v-5.6c0-2.4 1.4-3.3 2.6-3.3 1.5 0 2.4 1 2.4 2.6v6.3h2v-6.5c.1-2.6-1.4-4.4-3.9-4.4ZM109.4 27.43l-3.6-8.9h-2.2l4.8 11.6c-.3.9-.7 1.2-1.7 1.2h-2.5v2h2.5c1.8 0 2.8-.8 3.5-2.6l4.7-12.2h-2.1l-3.4 8.9Z"/>
</svg>
